TileServer und Tiles/svg/9/48_14.svg

<?xml version='1.0' encoding='UTF-8' standalone='no'?>
<svg xmlns="http://www.w3.org/2000/svg" width="497pt" viewBox="0 0 497 279" xmlns:xlink="http://www.w3.org/1999/xlink" height="279pt">
 <defs style="stroke:none;" overflow="visible">
  <path id="glyph0-4" d="M -0.21875 2.40625 L 1.421875 -5.359375 L 2.140625 -5.359375 L 2.015625 -4.359375 L 2.0625 -4.359375 C 2.289062 -4.648438 2.550781 -4.90625 2.84375 -5.125 C 3.144531 -5.34375 3.476562 -5.453125 3.84375 -5.453125 C 4.28125 -5.453125 4.628906 -5.296875 4.890625 -4.984375 C 5.160156 -4.679688 5.296875 -4.226562 5.296875 -3.625 C 5.296875 -3.132812 5.234375 -2.664062 5.109375 -2.21875 C 4.992188 -1.769531 4.820312 -1.367188 4.59375 -1.015625 C 4.375 -0.671875 4.101562 -0.398438 3.78125 -0.203125 C 3.457031 -0.00390625 3.09375 0.09375 2.6875 0.09375 C 2.332031 0.09375 2.039062 0.00390625 1.8125 -0.171875 C 1.59375 -0.359375 1.425781 -0.570312 1.3125 -0.8125 L 1.265625 -0.8125 C 1.265625 -0.707031 1.25 -0.5625 1.21875 -0.375 C 1.195312 -0.1875 1.171875 -0.03125 1.140625 0.09375 L 0.65625 2.40625 Z M 2.625 -0.625 C 2.882812 -0.625 3.125 -0.707031 3.34375 -0.875 C 3.570312 -1.050781 3.765625 -1.28125 3.921875 -1.5625 C 4.078125 -1.851562 4.195312 -2.175781 4.28125 -2.53125 C 4.363281 -2.894531 4.40625 -3.265625 4.40625 -3.640625 C 4.40625 -4.359375 4.117188 -4.71875 3.546875 -4.71875 C 3.328125 -4.71875 3.101562 -4.632812 2.875 -4.46875 C 2.644531 -4.3125 2.429688 -4.09375 2.234375 -3.8125 C 2.046875 -3.53125 1.890625 -3.207031 1.765625 -2.84375 C 1.648438 -2.488281 1.59375 -2.109375 1.59375 -1.703125 C 1.59375 -1.390625 1.675781 -1.128906 1.84375 -0.921875 C 2.007812 -0.722656 2.269531 -0.625 2.625 -0.625 Z M 2.625 -0.625 "/>
  <path id="glyph0-3" d="M -0.25 2.40625 C -0.40625 2.40625 -0.535156 2.394531 -0.640625 2.375 C -0.742188 2.351562 -0.84375 2.328125 -0.9375 2.296875 L -0.9375 1.59375 C -0.84375 1.613281 -0.742188 1.632812 -0.640625 1.65625 C -0.535156 1.675781 -0.421875 1.6875 -0.296875 1.6875 C -0.0234375 1.6875 0.203125 1.601562 0.390625 1.4375 C 0.585938 1.269531 0.769531 1.023438 0.9375 0.703125 L 1.296875 0.078125 L 0.484375 -5.359375 L 1.359375 -5.359375 L 1.703125 -2.703125 C 1.742188 -2.492188 1.769531 -2.257812 1.78125 -2 C 1.800781 -1.75 1.816406 -1.507812 1.828125 -1.28125 C 1.835938 -1.050781 1.84375 -0.863281 1.84375 -0.71875 L 1.875 -0.71875 C 1.914062 -0.820312 1.976562 -0.976562 2.0625 -1.1875 C 2.15625 -1.40625 2.253906 -1.628906 2.359375 -1.859375 C 2.472656 -2.085938 2.570312 -2.273438 2.65625 -2.421875 L 4.203125 -5.359375 L 5.15625 -5.359375 L 1.75 0.90625 C 1.476562 1.40625 1.191406 1.78125 0.890625 2.03125 C 0.597656 2.28125 0.21875 2.40625 -0.25 2.40625 Z M -0.25 2.40625 "/>
  <path id="glyph0-2" d="M 0.296875 0 L 1.421875 -5.34375 L 2.5625 -5.34375 L 3.125 -1.09375 L 3.140625 -1.09375 L 5.484375 -5.34375 L 6.71875 -5.34375 L 5.59375 0 L 4.796875 0 L 5.453125 -3.0625 C 5.515625 -3.320312 5.578125 -3.578125 5.640625 -3.828125 C 5.703125 -4.078125 5.757812 -4.3125 5.8125 -4.53125 L 5.796875 -4.53125 L 3.265625 0 L 2.578125 0 L 1.96875 -4.515625 L 1.9375 -4.515625 C 1.914062 -4.328125 1.878906 -4.097656 1.828125 -3.828125 C 1.785156 -3.566406 1.738281 -3.304688 1.6875 -3.046875 L 1.0625 0 Z M 0.296875 0 "/>
  <path id="glyph0-1" d="M -0.5625 0 L 3.3125 -7.140625 L 4.25 -7.140625 L 5.125 0 L 4.25 0 L 3.984375 -2.21875 L 1.5625 -2.21875 L 0.40625 0 Z M 2 -3.015625 L 3.890625 -3.015625 L 3.734375 -4.515625 C 3.703125 -4.773438 3.675781 -5.054688 3.65625 -5.359375 C 3.632812 -5.660156 3.617188 -5.929688 3.609375 -6.171875 L 3.578125 -6.171875 C 3.472656 -5.921875 3.347656 -5.648438 3.203125 -5.359375 C 3.066406 -5.066406 2.921875 -4.773438 2.765625 -4.484375 Z M 2 -3.015625 "/>
  <path id="glyph0-0" d="M 0.9375 0 L 0.9375 -7.140625 L 5.046875 -7.140625 L 5.046875 0 Z M 1.453125 -0.515625 L 4.546875 -0.515625 L 4.546875 -6.625 L 1.453125 -6.625 Z M 1.453125 -0.515625 "/>
 </defs>
 <image width="497" xlink:href="svg/9/48_14.jpg" height="279"/>
 <g>
  <path d="M 426.285156 138.234375 L 430.160156 131.09375 L 431.097656 131.09375 L 431.972656 138.234375 L 431.097656 138.234375 L 430.832031 136.015625 L 428.410156 136.015625 L 427.253906 138.234375 Z M 428.847656 135.21875 L 430.738281 135.21875 L 430.582031 133.71875 C 430.550781 133.460938 430.523438 133.179688 430.503906 132.875 C 430.480469 132.574219 430.464844 132.304688 430.457031 132.0625 L 430.425781 132.0625 C 430.320312 132.3125 430.195312 132.585938 430.050781 132.875 C 429.914062 133.167969 429.769531 133.460938 429.613281 133.75 Z M 428.847656 135.21875 " transform=" rotate(  340 438.297 135.235) " style="fill:none;stroke-width:2;stroke-linecap:butt;stroke-linejoin:round;stroke:rgb(100%,100%,100%);stroke-opacity:0.6;stroke-miterlimit:10;"/>
  <path d="M 432.765625 138.234375 L 433.890625 132.890625 L 435.03125 132.890625 L 435.59375 137.140625 L 435.609375 137.140625 L 437.953125 132.890625 L 439.1875 132.890625 L 438.0625 138.234375 L 437.265625 138.234375 L 437.921875 135.171875 C 437.984375 134.914062 438.046875 134.65625 438.109375 134.40625 C 438.171875 134.15625 438.226562 133.921875 438.28125 133.703125 L 438.265625 133.703125 L 435.734375 138.234375 L 435.046875 138.234375 L 434.4375 133.71875 L 434.40625 133.71875 C 434.382812 133.90625 434.347656 134.136719 434.296875 134.40625 C 434.253906 134.667969 434.207031 134.929688 434.15625 135.1875 L 433.53125 138.234375 Z M 432.765625 138.234375 " transform=" rotate(  340 438.297 135.235) " style="fill:none;stroke-width:2;stroke-linecap:butt;stroke-linejoin:round;stroke:rgb(100%,100%,100%);stroke-opacity:0.6;stroke-miterlimit:10;"/>
  <path d="M 439.207031 140.640625 C 439.050781 140.640625 438.921875 140.628906 438.816406 140.609375 C 438.714844 140.585938 438.613281 140.5625 438.519531 140.53125 L 438.519531 139.828125 C 438.613281 139.847656 438.714844 139.867188 438.816406 139.890625 C 438.921875 139.910156 439.035156 139.921875 439.160156 139.921875 C 439.433594 139.921875 439.660156 139.835938 439.847656 139.671875 C 440.042969 139.503906 440.226562 139.257812 440.394531 138.9375 L 440.753906 138.3125 L 439.941406 132.875 L 440.816406 132.875 L 441.160156 135.53125 C 441.199219 135.742188 441.226562 135.976562 441.238281 136.234375 C 441.257812 136.484375 441.273438 136.726562 441.285156 136.953125 C 441.292969 137.183594 441.300781 137.371094 441.300781 137.515625 L 441.332031 137.515625 C 441.371094 137.414062 441.433594 137.257812 441.519531 137.046875 C 441.613281 136.828125 441.710938 136.605469 441.816406 136.375 C 441.929688 136.148438 442.027344 135.960938 442.113281 135.8125 L 443.660156 132.875 L 444.613281 132.875 L 441.207031 139.140625 C 440.933594 139.640625 440.648438 140.015625 440.347656 140.265625 C 440.054688 140.515625 439.675781 140.640625 439.207031 140.640625 Z M 439.207031 140.640625 " transform=" rotate(  340 438.297 135.235) " style="fill:none;stroke-width:2;stroke-linecap:butt;stroke-linejoin:round;stroke:rgb(100%,100%,100%);stroke-opacity:0.6;stroke-miterlimit:10;"/>
  <path d="M 443.90625 140.640625 L 445.546875 132.875 L 446.265625 132.875 L 446.140625 133.875 L 446.1875 133.875 C 446.414062 133.585938 446.675781 133.328125 446.96875 133.109375 C 447.269531 132.890625 447.601562 132.78125 447.96875 132.78125 C 448.40625 132.78125 448.753906 132.9375 449.015625 133.25 C 449.285156 133.554688 449.421875 134.007812 449.421875 134.609375 C 449.421875 135.101562 449.359375 135.570312 449.234375 136.015625 C 449.117188 136.464844 448.945312 136.867188 448.71875 137.21875 C 448.5 137.5625 448.226562 137.835938 447.90625 138.03125 C 447.582031 138.230469 447.21875 138.328125 446.8125 138.328125 C 446.457031 138.328125 446.164062 138.238281 445.9375 138.0625 C 445.71875 137.875 445.550781 137.664062 445.4375 137.421875 L 445.390625 137.421875 C 445.390625 137.527344 445.375 137.671875 445.34375 137.859375 C 445.320312 138.046875 445.296875 138.203125 445.265625 138.328125 L 444.78125 140.640625 Z M 446.75 137.609375 C 447.007812 137.609375 447.25 137.527344 447.46875 137.359375 C 447.695312 137.183594 447.890625 136.953125 448.046875 136.671875 C 448.203125 136.382812 448.320312 136.058594 448.40625 135.703125 C 448.488281 135.339844 448.53125 134.96875 448.53125 134.59375 C 448.53125 133.875 448.242188 133.515625 447.671875 133.515625 C 447.453125 133.515625 447.226562 133.601562 447 133.765625 C 446.769531 133.921875 446.554688 134.140625 446.359375 134.421875 C 446.171875 134.703125 446.015625 135.027344 445.890625 135.390625 C 445.773438 135.746094 445.71875 136.125 445.71875 136.53125 C 445.71875 136.84375 445.800781 137.105469 445.96875 137.3125 C 446.132812 137.511719 446.394531 137.609375 446.75 137.609375 Z M 446.75 137.609375 " transform=" rotate(  340 438.297 135.235) " style="fill:none;stroke-width:2;stroke-linecap:butt;stroke-linejoin:round;stroke:rgb(100%,100%,100%);stroke-opacity:0.6;stroke-miterlimit:10;"/>
  <g transform=" rotate(  340 438.297 135.235) " style="fill:rgb(30.196078%,50.196078%,70.196078%);fill-opacity:1;">
   <use xlink:href="#glyph0-1" y="138.235105" x="426.846942"/>
   <use xlink:href="#glyph0-2" y="138.235105" x="432.466942"/>
   <use xlink:href="#glyph0-3" y="138.235105" x="439.456942"/>
   <use xlink:href="#glyph0-4" y="138.235105" x="444.126942"/>
  </g>
 </g>
</svg>

<svg xmlns="http://www.w3.org/2000/svg" xmlns:xlink="http://www.w3.org/1999/xlink" viewBox="0 0 497 279"> <defs overflow="visible" style="stroke:none">  <path id="d" d="m-.2 2.4 1.6-7.8h.7v1l.7-.6c.3-.3.7-.5 1-.5.5 0 .8.2 1 .5.5.3.6.8.6 1.4-.1.5-.1 1-.3 1.4L4.6-1l-.8.8a2 2 0 0 1-1.1.3C2.3 0 2 0 1.8-.2a2 2 0 0 1-.5-.6v.4L1 .1.7 2.4Zm2.8-3c.4 0 .5-.1.7-.4.3 0 .5-.3.7-.6a4 4 0 0 0 .3-1 5 5 0 0 0 .1-.9c0-.9-.3-1.2-.9-1.2-.2 0-.4 0-.5.2l-.8.7-.4 1c-.2.3-.2.7-.2 1.1 0 .3 0 .6.2.8.2.2.5.3.8.3Zm0 0"/>  <path id="c" d="M-.3 2.4h-.3l-.4-.1v-.7h.7c.3.1.5.1.7-.1.2-.2.4-.5.5-.8l.4-.6-.8-5.5h.9l.3 2.7v.7l.2.7v.6A28.4 28.4 0 0 1 2.5-2c-.1 0 .1-.3.2-.4l1.5-3h1L1.7 1c-.1.4-.4.8-.7 1-.4.3-.8.4-1.2.4Zm0 0"/>  <path id="b" d="m.3 0 1.1-5.3h1.2L3-1.1l2.5-4.2h1.2L5.6 0h-.8l.7-3 .1-.9.2-.6L3.3 0h-.7L2-4.5l-.3.7v.8L1 0Zm0 0"/>  <path id="a" d="m-.6 0 4-7.1h.8L5 0h-.7L4-2.2H1.6L.4 0ZM2-3h1.9l-.2-1.5v-1.7h-.2a14 14 0 0 1-.3.8l-.4 1Zm0 0"/>  <path d="M1 0v-7.1h4V0Zm.4-.5h3.1v-6.1h-3Zm.1 0"/> </defs> <image xlink:href="svg/9/48_14.jpg" width="497" height="279"/> <path d="m426.3 138.2 3.9-7.1h.8l1 7.1h-1l-.2-2.2h-2.4l-1.1 2.2Zm2.5-3h2l-.3-1.5V132a14 14 0 0 1-.5.9l-.4.8Zm4 3 1-5.2h1.2l.6 4 2.4-4h1.2l-1.2 5.2h-.7l.6-3 .2-.8.2-.7-2.6 4.5h-.7l-.6-4.5-.1.7-.1.8-.7 3Zm6.4 2.4h-.7v-.9h.3l.4.3c.2 0 .5 0 .6-.3l.6-.8.4-.6-.9-5.3h1.1l.1 2.5v1.5l.3.5a28.4 28.4 0 0 1 .4-1.1l.3-.6 1.6-3h1l-3.6 6.4c-.1.4-.5.9-.8 1.1-.2.2-.6.3-1 .3Zm4.8 0 1.4-7.6h.9l-.3.9 1-.9c.3 0 .6-.2 1-.2s.8.1 1 .4c.3.5.4.8.4 1.5 0 .4 0 .9-.2 1.3 0 .5-.2 1-.5 1.2-.2.4-.5.6-.7.8a2 2 0 0 1-1 .3c-.6 0-.9 0-1.2-.2a2 2 0 0 1-.4-.7v.6l-.2.3-.4 2.3Zm2.7-3c.3 0 .4 0 .7-.2l.6-.7a4 4 0 0 0 .4-1 5 5 0 0 0 .1-1.1c0-.7-.3-1-.8-1-.2-.1-.5-.1-.7.1l-.6.7-.5 1-.2 1.1c0 .3.1.6.3.8 0 .2.4.3.8.3Zm.1 0" style="fill:none;stroke-width:2;stroke-linecap:butt;stroke-linejoin:round;stroke:#fff;stroke-opacity:.6;stroke-miterlimit:10" transform=" rotate(  340 438.297 135.235) "/> <g style="fill:#4d80b3;fill-opacity:1" transform=" rotate(  340 438.297 135.235) ">  <use xlink:href="#a" x="426.8" y="138.2"/>  <use xlink:href="#b" x="432.5" y="138.2"/>  <use xlink:href="#c" x="439.5" y="138.2"/>  <use xlink:href="#d" x="444.1" y="138.2"/> </g></svg>
